X:591
T:The Rocky Road to Dublin
M:9/8
L:1/8
K:G
"Am"efe "G"d2 B A2 A|"Am"E2 A A2 A "G"Bcd|"Am"efe "G"d2 B "Am"A2 c|\
"G"B2 A G2 A Bcd|
"Am"e2 a a2 f "G"g2 f|"Am"e2 a a2 A "G"Bcd|"Am"e2 a a2 f "Em"g2 e|\
"G"d2 B G2 A Bcd|
"Am"e2 a a2 f "G"g2 f|"Am"e2 a a2 A "G"Bcd|"Am"efg "D"fga "Em"gfe|\
"G"d2 B G2 A Bcd|]
